X: 21547
T: Kiley's
R: reel
M: 4/4
K: Amajor
A2 ce agfe|dcBA GB E2|B2 GB zG B2|zcBA GB E2|
A/A/A c/d/e a2 g/f/e|dcBA GBzE|B2 GB zG B2|A2 c2 A2:|
e2 ce zc e2|f2 df zd f2|e2 ce zc e2|B2 GB zG B2|
e/f/e ce zA ce|f/g/f df zA df|agae fdBG|A2 c2 A2:|

